app/assets/images/payment_icons/payzapp.svg

<svg data-name="Layer 1" xmlns="http://www.w3.org/2000/svg" viewBox="0 0 38 24"><title>payzapp</title><rect x=".5" y=".5" width="37" height="23" rx="3" ry="3" fill="#fff" stroke="#000" stroke-opacity=".07"/><path d="M18.3 4.92H12v6.37h2.45V7.4h3.85V4.92zm1.4 0V7.4h3.86v3.89H26V4.92h-6.3zm3.85 7.78v3.9H19.7v2.47H26v-6.36h-2.45zm-9.1 3.9v-3.89H12v6.36h6.3V16.6h-3.85z" fill="#ed232a"/><path d="M16.91 9.88h4.19v4.24H17z" fill="#004c8f"/></svg>

<svg id="Layer_1" data-name="Layer 1" xmlns="http://www.w3.org/2000/svg" viewBox="0 0 38 24"><title>payzapp</title><rect x="0.5" y="0.5" width="37" height="23" rx="3" ry="3" style="fill:#fff;stroke:#000;stroke-opacity:0.07000000029802322"/><path d="M18.3,4.92H12v6.37h2.45V7.4H18.3V4.92Zm1.4,0V7.4h3.86v3.89H26V4.92H19.7Zm3.85,7.78V16.6H19.7v2.47H26V12.71H23.55ZM14.45,16.6V12.71H12v6.36h6.3V16.6H14.45Z" style="fill:#ed232a"/><path id="path1584" d="M16.91,9.88H21.1v4.24H17Z" style="fill:#004c8f"/></svg>
